dist/uploads/catalog-sidebar-icons/1/i-catalog-12.svg

<svg width="38" height="38" viewBox="0 0 38 38" fill="none" xmlns="http://www.w3.org/2000/svg">
<path d="M27.7776 25.6279C27.5645 24.4172 26.5183 23.8605 25.532 23.8605H25.1785V22.0135C25.2775 21.4329 25.3826 20.8205 25.4984 20.1462C26.2849 15.5676 27.3621 9.29671 27.8013 5.16802C27.9259 4.00151 27.6246 3.06391 26.8955 2.30212C25.1087 0.441833 21.299 0.0565857 18.9925 0C16.6904 0.0565857 12.8789 0.441833 11.0921 2.29765C10.3586 3.05944 10.0617 3.99704 10.1863 5.16355C10.6847 9.84724 12.0421 17.4914 12.8092 22.0877V23.8551H12.453C11.4632 23.8551 10.4134 24.4154 10.2039 25.6225H10.1668V25.991C10.1668 26.0166 10.1598 26.0378 10.1598 26.0643C10.1598 26.0908 10.166 26.112 10.1668 26.1376V37.9998H12.818V28.279H13.7017V35.3488H16.3529V28.279H21.6552V35.3488H24.3064V28.279H25.1901V37.9999H27.8413V25.6279H27.7776ZM22.5273 23.8605H15.4576V22.093H22.5273V23.8605Z" fill="#FFC800"/>
</svg>

<svg width="38" height="38" fill="none" xmlns="http://www.w3.org/2000/svg"><path d="M27.778 25.628c-.213-1.21-1.26-1.768-2.246-1.768h-.354v-1.846l.32-1.868c.787-4.578 1.864-10.85 2.303-14.978.125-1.166-.176-2.104-.905-2.866C25.108.442 21.298.057 18.991 0c-2.302.057-6.113.442-7.9 2.298-.733.761-1.03 1.699-.906 2.866.499 4.683 1.856 12.327 2.623 16.924v1.767h-.356c-.99 0-2.04.56-2.25 1.767h-.036v.369c0 .026-.007.047-.007.073 0 .027.006.048.007.074V38h2.651v-9.721h.884v7.07h2.65v-7.07h5.303v7.07h2.651v-7.07h.884v9.72h2.651v-12.37h-.063zm-5.25-1.768h-7.07v-1.767h7.07v1.767z" fill="#FFC800"/></svg>
